X:1
T:Bauernhochzeit
C:traditionell
R:
A:Arendsee, Mecklenburg
F:http://simonwascher.info/
Z:abc transcription Simon Wascher
M:2/4
L:1/8
K:D
ddcc | BB A2 | dAFA |\
ddcc | BB A2 | B2 c2 | d2 z2 :|\
|:\
f3 f | gfge | d2 a2 | a2 z2 |\
f3 f | gfge | d2 f2 | d2 z2 :|
W:aus Simon Waschers TradArchiv

